!!!OTL: Schoen Adelheid Ohne Text
!!!ARE: Nordeuropa, Sverige
!!!YOR: 4, S. 66
!!    1934 gedruckt in Helsingfors
!!!SCT: Q2074F
!!!YEM: Copyright 1995, estate of Helmut Schaffrath.
**kern
*ICvox
*Ivox
*M4/4
*k[b-]
*d:
{8d
=1
8d
8e
8fn
8g
4a
8fn
8a
=2
4ccn
8g
8g
4.g}
{8g
=3
8g
8a
8b-
8ccn
4dd
8ccn
8a
=4
4b-
4a
4.r}
{8dd
=5
8.dd
16ccn
8b-
8a
4.g
8dd
=6
8.ccn
16b-
8a
8g
4.fn}
{8e
=7
8.d
16d
8d
8fn
8a
8a
8fn
8fn
=8
4e
4d
4.r}
==
!!!AGN: Ballade, Entfuehrung, Adelige als Dienstmagd, Wiederfinden
!! Schwedische Fassung der Ballade.
!!!ONB: ESAC (Essen Associative Code) Database: BALLADE
!!!AMT: simple quadruple
!!!AIN: vox
!!!EED: Helmut Schaffrath
!!!EEV: 1.0
*-
